rospo-icon-theme-classic-common/48x48/apps/bpython.svg

<svg height="48" width="48" xmlns="http://www.w3.org/2000/svg"><path d="m13.583333 4.9999999c-4.2016005 0-7.5833338 2.4158333-7.5833338 5.4166671v7.583333 11.999666h17.3333338 3.25c3.000833 0 5.416666-3.381733 5.416666-7.583333v-1.166333c0-4.2016-2.415833-7.25-5.416666-7.25h-10.583333v4h3.605989 3.107812c1.783353 0 3.286199 1.289007 3.286199 2.889453v1.887427c0 1.600445-1.502846 3.222786-3.286199 3.222786h-8.713801v-3.222786-1.887427-2.022786-.866667-4.333333-1.666667h9v-1.583333c0-3.0008338-3.248067-5.4166671-7.449667-5.4166671z" opacity=".2"/><path d="m23.583334 45c-4.201601 0-7.583334-2.415833-7.583334-5.416667v-7.583333-11.999666h17.333334 3.25c3.000833 0 5.416666 3.381733 5.416666 7.583333v1.166333c0 4.2016-2.415833 7.25-5.416666 7.25h-10.583333v-4h3.605989 3.107812c1.783353 0 3.286199-1.289007 3.286199-2.889453v-1.887427c0-1.600445-1.514482-3.019396-3.286199-3.222786h-8.713801v3.222786 1.887427 2.022786.866667 4.333333 1.666667h9v1.583333c0 3.000834-3.248067 5.416667-7.449667 5.416667z" opacity=".2"/><path d="m13.583333 3.9999999c-4.2016005 0-7.5833338 2.4158333-7.5833338 5.4166667v7.5833334 11.999666h17.3333338 3.25c3.000833 0 5.416666-3.381733 5.416666-7.583333v-1.166333c0-4.2016-2.415833-7.25-5.416666-7.25h-10.583333v4h3.605989 3.107812c1.783353 0 3.286199 1.289007 3.286199 2.889453v1.887427c0 1.600445-1.502846 3.222786-3.286199 3.222786h-8.713801v-3.222786-1.887427-2.022786-.866667-4.333333-1.666667h9v-1.5833334c0-3.0008334-3.248067-5.4166667-7.449667-5.4166667z" fill="#4795d1"/><path d="m13.583984 4c-4.2016001 0-7.583984 2.4151822-7.583984 5.4160156v1.0000004c0-3.0008342 3.3823839-5.416016 7.583984-5.416016h1.966797c4.2016 0 7.449219 2.4151818 7.449219 5.416016v-1.0000004c0-3.0008334-3.247619-5.4160156-7.449219-5.4160156zm2.416016 9v1h10.583984c3.000833 0 5.416016 3.0484 5.416016 7.25v-1c0-4.2016-2.415183-7.25-5.416016-7.25zm10 8.777344c0 1.600445-1.503756 3.222656-3.287109 3.222656h-8.712891v1h8.712891c1.783353 0 3.287109-1.622211 3.287109-3.222656z" fill="#fff" opacity=".2"/><path d="m18.999999 6.9999995a1.0000002 1.0000002 0 0 0 -.999999 1.0000003 1.0000002 1.0000002 0 0 0  .999999 1.0000002 1.0000002 1.0000002 0 0 0 1.000001-1.0000002 1.0000002 1.0000002 0 0 0 -1.000001-1.0000003z" opacity=".2"/><path d="m18.999999 5.9999995a1.0000002 1.0000002 0 0 0 -.999999 1.0000003 1.0000002 1.0000002 0 0 0  .999999 1.0000002 1.0000002 1.0000002 0 0 0 1.000001-1.0000002 1.0000002 1.0000002 0 0 0 -1.000001-1.0000003z" fill="#fff"/><path d="m23.583334 44c-4.201601 0-7.583334-2.415833-7.583334-5.416667v-7.583333-11.999666h17.333334 3.25c3.000833 0 5.416666 3.381733 5.416666 7.583333v1.166333c0 4.2016-2.415833 7.25-5.416666 7.25h-10.583333v-4h3.605989 3.107812c1.783353 0 3.286199-1.289007 3.286199-2.889453v-1.887427c0-1.600445-1.514482-3.019396-3.286199-3.222786h-8.713801v3.222786 1.887427 2.022786.866667 4.333333 1.666667h9v1.583333c0 3.000834-3.248067 5.416667-7.449667 5.416667z" fill="#ffc851"/><path d="m16 19v1h17.333984 3.25c3.000833 0 5.416016 3.382384 5.416016 7.583984v-1c0-4.2016-2.415183-7.583984-5.416016-7.583984h-3.25zm20 9.111328c0 1.600446-1.503756 2.888672-3.287109 2.888672h-3.107422-3.605469v1h3.605469 3.107422c1.783353 0 3.287109-1.288226 3.287109-2.888672zm-12 8.888672v1h9v-1z" fill="#fff" opacity=".2"/><path d="m29 43a1.0000002 1.0000002 0 0 1 -.999999-1 1.0000002 1.0000002 0 0 1  .999999-1 1.0000002 1.0000002 0 0 1 1.000001 1 1.0000002 1.0000002 0 0 1 -1.000001 1z" opacity=".2"/><path d="m29 42a1.0000002 1.0000002 0 0 1 -.999999-1 1.0000002 1.0000002 0 0 1  .999999-1 1.0000002 1.0000002 0 0 1 1.000001 1 1.0000002 1.0000002 0 0 1 -1.000001 1z" fill="#fff"/><path d="m25.822266 19c .105855.281909.177734.575615.177734.888672v1.888672c0 .416595-.105014.832092-.287109 1.222656h6.167968c.076908-.510591.119141-1.0404.119141-1.583984v-1.166016c0-.430782-.03126-.845506-.08008-1.25z" fill="#4795d1"/></svg>

<svg xmlns="http://www.w3.org/2000/svg" width="48" height="48" version="1">
 <path style="opacity:0.2" d="m 13.583333,4.9999999 c -4.2016005,0 -7.5833338,2.4158333 -7.5833338,5.4166671 l 0,7.583333 0,11.999666 17.3333338,0 3.25,0 c 3.000833,0 5.416666,-3.381733 5.416666,-7.583333 l 0,-1.166333 c 0,-4.2016 -2.415833,-7.25 -5.416666,-7.25 L 16,14 l 0,4 3.605989,0 3.107812,0 C 24.497154,18 26,19.289007 26,20.889453 l 0,1.887427 c 0,1.600445 -1.502846,3.222786 -3.286199,3.222786 l -8.713801,0 0,-3.222786 0,-1.887427 0,-2.022786 L 14,18 14,13.666667 14,12 l 9,0 0,-1.583333 C 23,7.4158332 19.751933,4.9999999 15.550333,4.9999999 Z"/>
 <path style="opacity:0.2" d="M 23.583334,45 C 19.381733,45 16,42.584167 16,39.583333 L 16,32 l 0,-11.999666 17.333334,0 3.25,0 C 39.584167,20.000334 42,23.382067 42,27.583667 L 42,28.75 C 42,32.9516 39.584167,36 36.583334,36 l -10.583333,0 0,-4 3.605989,0 3.107812,0 c 1.783353,0 3.286199,-1.289007 3.286199,-2.889453 l 0,-1.887427 c 0,-1.600445 -1.514482,-3.019396 -3.286199,-3.222786 l -8.713801,0 0,3.222786 0,1.887427 0,2.022786 0,0.866667 0,4.333333 0,1.666667 9,0 0,1.583333 C 33.000001,42.584167 29.751934,45 25.550334,45 Z"/>
 <path style="fill:#4795d1" d="m 13.583333,3.9999999 c -4.2016005,0 -7.5833338,2.4158333 -7.5833338,5.4166667 l 0,7.5833334 0,11.999666 17.3333338,0 3.25,0 c 3.000833,0 5.416666,-3.381733 5.416666,-7.583333 l 0,-1.166333 c 0,-4.2016 -2.415833,-7.25 -5.416666,-7.25 L 16,13 l 0,4 3.605989,0 3.107812,0 C 24.497154,17 26,18.289007 26,19.889453 l 0,1.887427 c 0,1.600445 -1.502846,3.222786 -3.286199,3.222786 l -8.713801,0 0,-3.222786 0,-1.887427 0,-2.022786 L 14,17 14,12.666667 14,11 23,11 23,9.4166666 C 23,6.4158332 19.751933,3.9999999 15.550333,3.9999999 Z"/>
 <path style="fill:#ffffff;opacity:0.2" d="M 13.583984 4 C 9.3823839 4 6 6.4151822 6 9.4160156 L 6 10.416016 C 6 7.4151818 9.3823839 5 13.583984 5 L 15.550781 5 C 19.752381 5 23 7.4151818 23 10.416016 L 23 9.4160156 C 23 6.4151822 19.752381 4 15.550781 4 L 13.583984 4 z M 16 13 L 16 14 L 26.583984 14 C 29.584817 14 32 17.0484 32 21.25 L 32 20.25 C 32 16.0484 29.584817 13 26.583984 13 L 16 13 z M 26 21.777344 C 26 23.377789 24.496244 25 22.712891 25 L 14 25 L 14 26 L 22.712891 26 C 24.496244 26 26 24.377789 26 22.777344 L 26 21.777344 z"/>
 <path style="opacity:0.2" d="M 18.999999,6.9999995 A 1.0000002,1.0000002 0 0 0 18,7.9999998 1.0000002,1.0000002 0 0 0 18.999999,9 1.0000002,1.0000002 0 0 0 20,7.9999998 1.0000002,1.0000002 0 0 0 18.999999,6.9999995 Z"/>
 <path style="fill:#ffffff" d="M 18.999999,5.9999995 A 1.0000002,1.0000002 0 0 0 18,6.9999998 1.0000002,1.0000002 0 0 0 18.999999,8 1.0000002,1.0000002 0 0 0 20,6.9999998 1.0000002,1.0000002 0 0 0 18.999999,5.9999995 Z"/>
 <path style="fill:#ffc851" d="M 23.583334,44 C 19.381733,44 16,41.584167 16,38.583333 L 16,31 l 0,-11.999666 17.333334,0 3.25,0 C 39.584167,19.000334 42,22.382067 42,26.583667 L 42,27.75 C 42,31.9516 39.584167,35 36.583334,35 l -10.583333,0 0,-4 3.605989,0 3.107812,0 c 1.783353,0 3.286199,-1.289007 3.286199,-2.889453 l 0,-1.887427 c 0,-1.600445 -1.514482,-3.019396 -3.286199,-3.222786 l -8.713801,0 0,3.222786 0,1.887427 0,2.022786 0,0.866667 0,4.333333 0,1.666667 9,0 0,1.583333 C 33.000001,41.584167 29.751934,44 25.550334,44 Z"/>
 <path style="fill:#ffffff;opacity:0.2" d="M 16 19 L 16 20 L 33.333984 20 L 36.583984 20 C 39.584817 20 42 23.382384 42 27.583984 L 42 26.583984 C 42 22.382384 39.584817 19 36.583984 19 L 33.333984 19 L 16 19 z M 36 28.111328 C 36 29.711774 34.496244 31 32.712891 31 L 29.605469 31 L 26 31 L 26 32 L 29.605469 32 L 32.712891 32 C 34.496244 32 36 30.711774 36 29.111328 L 36 28.111328 z M 24 37 L 24 38 L 33 38 L 33 37 L 24 37 z"/>
 <path style="opacity:0.2" d="M 29,43 A 1.0000002,1.0000002 0 0 1 28.000001,42 1.0000002,1.0000002 0 0 1 29,41 1.0000002,1.0000002 0 0 1 30.000001,42 1.0000002,1.0000002 0 0 1 29,43 Z"/>
 <path style="fill:#ffffff" d="M 29,42 A 1.0000002,1.0000002 0 0 1 28.000001,41 1.0000002,1.0000002 0 0 1 29,40 1.0000002,1.0000002 0 0 1 30.000001,41 1.0000002,1.0000002 0 0 1 29,42 Z"/>
 <path style="fill:#4795d1" d="M 25.822266,19 C 25.928121,19.281909 26,19.575615 26,19.888672 l 0,1.888672 C 26,22.193939 25.894986,22.609436 25.712891,23 l 6.167968,0 C 31.957767,22.489409 32,21.9596 32,21.416016 L 32,20.25 c 0,-0.430782 -0.03126,-0.845506 -0.08008,-1.25 z"/>
</svg>
